!!!COM: Corelli, Arcangelo
!!!OTL: 
!!!ONM: Opus 6, No. 8
!!!OMV: 5
!!!CDT: 1653/2/17/-1713/1/8/
!!!OCY: Italia
**kern	**kern	**kern	**kern	**kern	**kern	**kern
*clefC	*clefG	*clefG	*clefG	*clefC	*clefG	*clefG
*k[b-]	*k[b-]	*k[b-]	*k[b-]	*k[b-]	*k[b-]	*k[b-]
*d:	*d:	*d:	*d:	*d:	*d:	*d:
*M3/4	*M3/4	*M3/4	*M3/4	*M3/4	*M3/4	*M3/4
=1	=1	=1	=1	=1	=1	=1
2.r	2.r	2.r	2.r	4G	4b-	4gg
.	.	.	.	4B-	4.dd	4.gg
.	.	.	.	4G	.	.
.	.	.	.	.	8gg	16ff#
.	.	.	.	.	.	16gg
=2	=2	=2	=2	=2	=2	=2
2.r	2.r	2.r	2.r	2.d	2.ff#	4aa
.	.	.	.	.	.	4dd
.	.	.	.	.	.	4dd
=3	=3	=3	=3	=3	=3	=3
2.r	2.r	2.r	2.r	4D	4ff#	4aa
.	.	.	.	4F#	4.ff#	4.aa
.	.	.	.	4D	.	.
.	.	.	.	.	16ee	16gg
.	.	.	.	.	16ff#	16aa
=4	=4	=4	=4	=4	=4	=4
2.r	2.r	2.r	2.r	2.G	2.gg	4bb-
.	.	.	.	.	.	4dd
.	.	.	.	.	.	4g
=5	=5	=5	=5	=5	=5	=5
4G	4d	4b-	4gg	4G	4b-	4gg
2GG	2g	2dd	8bb-	2GG	2dd	8bb-
.	.	.	8aa	.	.	8aa
.	.	.	8gg	.	.	8gg
.	.	.	8bb-	.	.	8bb-
=6	=6	=6	=6	=6	=6	=6
2.F	2.d	2.dd	4aa	2.F	2.dd	4aa
.	.	.	4dd	.	.	4dd
.	.	.	4dd	.	.	4dd
=7	=7	=7	=7	=7	=7	=7
4E-	4e-	4dd	8gg	4E-	4dd	8gg
.	.	.	8b-	.	.	8b-
2EE-	2g	2g	4.cc	2EE-	2g	4.cc
.	.	.	16b-	.	.	16b-
.	.	.	16cc	.	.	16cc
=8	=8	=8	=8	=8	=8	=8
2.D	2.a	2.f#	2.dd	2.D	2.f#	2.dd
=9	=9	=9	=9	=9	=9	=9
2.r	2.r	2.r	2.r	4d	4ff#	4aa
.	.	.	.	2D	4.ff#	4.aa
.	.	.	.	.	16ee	16gg
.	.	.	.	.	16ff#	16aa
=10	=10	=10	=10	=10	=10	=10
4G	4g	4dd	4bb-	4G	2.gg	2.bb-
4BB-	4g	4gg	4dd	4B-	.	.
4GG	4g	4b-	4g	4G	.	.
=11	=11	=11	=11	=11	=11	=11
2.r	2.r	2.r	2.r	4c	4ee	4gg
.	.	.	.	2C	4.ee	4.gg
.	.	.	.	.	16dd	16ff
.	.	.	.	.	16ee	16gg
=12	=12	=12	=12	=12	=12	=12
4F	4f	4cc	4aa	4F	2.ff	2.aa
4AA	4f	4ff	4cc	4A	.	.
4FF	4f	4a	4f	4F	.	.
=13	=13	=13	=13	=13	=13	=13
2.r	2.r	2.r	2.r	4B-	4dd	4ff
.	.	.	.	2G	4.ee	4.gg
.	.	.	.	.	8dd	8ff
=14	=14	=14	=14	=14	=14	=14
2A	4.a	4.cc#	4.ee	2A	4.cc#	4.ee
.	8g	8cc#	8ee	.	8cc#	8ee
4D	4f	8dd	8ff	4D	8dd	8ff
.	.	8cc#	8ee	.	8cc#	8ee
=15	=15	=15	=15	=15	=15	=15
4GG	4b-	4dd	8ff	4GG	4dd	8ff
.	.	.	8gg	.	.	8gg
2AA	4.e	4.dd	2ee	2AA	4.dd	2ee
.	8a	8cc#	.	.	8cc#	.
=16	=16	=16	=16	=16	=16	=16
2.D	2.a	2.dd	2.dd	4D	2.dd	2.dd
.	.	.	.	4d	.	.
.	.	.	.	4c	.	.
=17	=17	=17	=17	=17	=17	=17
4BB	4g	4g	4dd	4B	4dd	4dd
2r	2r	2r	2r	4G	2dd	4.gg
.	.	.	.	4B	.	.
.	.	.	.	.	.	8ff
=18	=18	=18	=18	=18	=18	=18
4C	4c	4g	4ee-	4C	2.g	2.ee-
2r	2r	2r	2r	4c	.	.
.	.	.	.	4B-	.	.
=19	=19	=19	=19	=19	=19	=19
4AA	4f	4f	4cc	4A	4cc	4cc
2r	2r	2r	2r	4F	2cc	4.ff
.	.	.	.	4A	.	.
.	.	.	.	.	.	8ee-
=20	=20	=20	=20	=20	=20	=20
2BB-	2B-	2f	4dd	2BB-	2f	4dd
.	.	.	[2bb-	.	.	[2bb-
4B-	4f	4dd	.	4B-	4dd	.
=21	=21	=21	=21	=21	=21	=21
4E	4g	4.cc	4bb-]	4E	4.cc	4bb-]
2F#	2d	.	8aa	2F#	.	8aa
.	.	8ee-	8gg	.	8ee-	8gg
.	.	8dd	[4aa	.	8dd	[4aa
.	.	8cc	.	.	8cc	.
=22	=22	=22	=22	=22	=22	=22
2G	2d	2b-	4aa]	2G	2b-	4aa]
.	.	.	4dd	.	.	4dd
4BB-	4d	4dd	[4gg	4BB-	4dd	[4gg
=23	=23	=23	=23	=23	=23	=23
4C	8e-	8cc	4gg]	4C	8cc	4gg]
.	8g	8b-	.	.	8b-	.
2D	4.d	2a	4.ff#	2D	2a	4.ff#
.	8d	.	16ee	.	.	16ee
.	.	.	16ff#	.	.	16ff#
=24	=24	=24	=24	=24	=24	=24
2GG	2d	2g	4gg	2GG	2g	4gg
.	.	.	[2dd	.	.	[2dd
4BB-	4g	4dd	.	4BB-	4dd	.
=25	=25	=25	=25	=25	=25	=25
2C	2g	2ee-	4dd]	2C	2ee-	4dd]
.	.	.	4g	.	.	4g
4C	4e-	4ee-	4cc	4C	4ee-	4cc
=26	=26	=26	=26	=26	=26	=26
2D	2A	2f#	4.cc	2D	2f#	4.cc
.	.	.	8dd	.	.	8dd
4E-	4G	[4g	[4b-	4E-	[4g	[4b-
=27	=27	=27	=27	=27	=27	=27
4C	4e-	4g]	8b-]	4C	4g]	8b-]
.	.	.	8a	.	.	8a
4D	4.A	4.g	2a	4D	4.g	2a
4DD	.	.	.	4DD	.	.
.	8d	8f#	.	.	8f#	.
=28	=28	=28	=28	=28	=28	=28
2.GG	2.d	2.g	2.g	2.GG	2.g	2.g
==	==	==	==	==	==	==
*-	*-	*-	*-	*-	*-	*-
!!!RWG: This file only contains pitch and duration data.
!!!RWG: Transposing instruments are not transposed.
!!!RWG: Durations of rests and tied notes may be interpreted.
!!!RWG: Key is interpreted using the Humdrum key tool.
!!!SCA: 
!!!YOR: Chrysander Edition
!!!AGN: concerto grosso
!!!AFT: stage1
!!!ENC: F. Bennion
!!!END: 1997/04/15
!!!AST: baroque
!!!YEC: Copyright 1994, Center for Computer Assisted Research in the Humanities
!!!YEM: Rights to all derivative electronic formats reserved.
!!!YEM: Refer to licensing agreement for further details.
!!!YEN: United States of America
!!!EED: W.B. Hewlett
!!!KEY: 2165487945
!!!EMD: Converted from MuseData to Humdrum Aug 9, 1999, by Bret Aarden using muse2kern.
!!!VTS: 662848789
